X: 372
T: Stuart's a coming
%R: strathspey
Z: 2014 John Chambers <jc:trillian.mit.edu>
B: Preston "Twenty four Country Dances for the Year 1799" p.166 #2
F: http://www.vwml.org/browse/browse-collections-dance-tune-books/browse-prestons1799# 2014-8-10
N: The 2nd strain has initial repeat but no final repeat; not fixed.
N: Removed dot from e in bar 4 to fix the rhythm.
M: C|
L: 1/8
K: Amix
e |\
c<Ac>d e2eg | d<gB<G {Bc}d2de |\
c<Ac>d e2ef/g/ | a>eg>d e2d :|
|: g |\
a>ge>g a>ge>g | d>gB>G {Bc}d2dg |\
a>ge>g a>ge>g | a>bg>a e2eg |
a>bg>a e<gd<g | B<GB<G {Bc}d2de |\
c<Ac>d e2eg | aegd e3 |]
% - - - - - - - - - - - - - - - - - - - - - - - - -
%%begintext align
%% 1st Lady cast of one Cu: & go into the 2d
%% Gent.s place, her Partner follow her, 1st Gent:
%% go back to his place, the Lady follow him
%% lead down the middle foot it up again & cast of
%%endtext
% - - - - - - - - - - - - - - - - - - - - - - - - -

%%sep 1 1 500
%%sep 1 1 500
